packages/foundations/assets/icons/functional/images/transportation/bike_16_inverted.svg

<svg width="16" height="16" viewBox="0 0 16 16" fill="none" xmlns="http://www.w3.org/2000/svg">
<g clip-path="url(#clip0_2214_6648)">
<path fill-rule="evenodd" clip-rule="evenodd" d="M11.6176 4.66775C11.4359 4.70566 11.2535 4.74208 11.0704 4.777L12.1145 8.11945C13.3228 8.12727 14.3 9.10923 14.3 10.3194C14.3 11.5344 13.315 12.5194 12.1 12.5194C10.8849 12.5194 9.89995 11.5344 9.89995 10.3194C9.89995 9.52315 10.323 8.8257 10.9565 8.43952L10.6944 7.59769L8.14852 10.2839C8.07043 10.3663 7.97569 10.4311 7.8706 10.4741C7.49084 10.6293 7.02966 10.4741 6.82735 10.0363C6.63468 9.56969 6.44368 9.10268 6.25435 8.63529L5.79816 9.20659C5.96871 9.49687 6.09995 9.88092 6.09995 10.3194C6.09995 11.5344 5.11498 12.5194 3.89995 12.5194C2.68492 12.5194 1.69995 11.5344 1.69995 10.3194C1.69995 9.10438 2.68492 8.1194 3.89995 8.1194C4.27137 8.1194 4.6213 8.21144 4.92816 8.37396L5.73515 7.36409L5.06235 5.71929L4.69995 5.7194C4.36858 5.7194 4.09995 5.45077 4.09995 5.1194C4.09995 4.81565 4.34897 4.5194 4.69995 4.5194C5.23193 4.51767 5.76402 4.51767 6.29623 4.5194C6.6276 4.5194 6.89623 4.78803 6.89623 5.1194C6.89623 5.42316 6.64457 5.71529 6.35675 5.71529C6.45465 5.97234 6.56132 6.23367 6.67675 6.49929L10.0368 5.49129L9.7272 4.49816C9.62922 4.18422 9.78494 3.82212 10.1823 3.73105C10.6944 3.62775 11.0573 3.55604 11.3823 3.49105C11.6176 3.44425 11.9831 3.54948 12.0746 3.908C12.2017 4.40018 11.8002 4.63363 11.6176 4.66775ZM3.89995 9.3194C3.34767 9.3194 2.89995 9.76712 2.89995 10.3194C2.89995 10.8717 3.34767 11.3194 3.89995 11.3194C4.45224 11.3194 4.89995 10.8717 4.89995 10.3194C4.89995 9.76712 4.45224 9.3194 3.89995 9.3194ZM12.1 9.3194C11.5477 9.3194 11.1 9.76712 11.1 10.3194C11.1 10.8717 11.5477 11.3194 12.1 11.3194C12.6522 11.3194 13.1 10.8717 13.1 10.3194C13.1 9.76712 12.6522 9.3194 12.1 9.3194ZM9.77435 6.82329L7.13355 7.61529L7.70315 9.0082L9.77435 6.82329Z" fill="#1A1C1F"/>
</g>
<defs>
<clipPath id="clip0_2214_6648">
<rect width="16" height="16" fill="white"/>
</clipPath>
</defs>
</svg>

<svg xmlns="http://www.w3.org/2000/svg" width="16" height="16" fill="none"><g clip-path="url(#a)"><path fill="#1A1C1F" fill-rule="evenodd" d="M11.618 4.668q-.273.057-.548.109l1.044 3.342a2.2 2.2 0 1 1-1.158.32l-.262-.841-2.545 2.686a.8.8 0 0 1-.278.19c-.38.155-.841 0-1.044-.438q-.288-.7-.573-1.4l-.456.57a2.2 2.2 0 1 1-.87-.833l.807-1.009-.673-1.645H4.7a.6.6 0 0 1 0-1.2q.798-.002 1.596 0a.6.6 0 0 1 .6.6c0 .304-.251.596-.54.596q.148.386.32.784l3.36-1.008-.309-.993a.592.592 0 0 1 .455-.767l1.2-.24c.236-.047.601.058.693.417.127.492-.275.726-.457.76M3.9 9.319a1 1 0 1 0 0 2 1 1 0 0 0 0-2m8.2 0a1 1 0 1 0 0 2 1 1 0 0 0 0-2M9.774 6.823l-2.64.792.57 1.393z" clip-rule="evenodd"/></g><defs><clipPath id="a"><path fill="#fff" d="M0 0h16v16H0z"/></clipPath></defs></svg>
